about/src/icon-personal.svg

<?xml version="1.0" encoding="UTF-8" standalone="no"?>
<!DOCTYPE svg PUBLIC "-//W3C//DTD SVG 1.1//EN" "http://www.w3.org/Graphics/SVG/1.1/DTD/svg11.dtd">
<svg width="100%" height="100%" viewBox="0 0 100 100" version="1.1" xmlns="http://www.w3.org/2000/svg" xmlns:xlink="http://www.w3.org/1999/xlink" xml:space="preserve" xmlns:serif="http://www.serif.com/" style="fill-rule:evenodd;clip-rule:evenodd;stroke-linejoin:round;stroke-miterlimit:2;">
    <g transform="matrix(1,0,0,1,-300,0)">
        <rect id="icon-personal" x="300" y="0" width="100" height="100" style="fill:none;"/>
        <g id="icon-personal1" serif:id="icon-personal">
            <g transform="matrix(5,0,0,5,290,-10)">
                <path d="M3,5L3,19C3,20.1 3.89,21 5,21L19,21C20.1,21 21,20.1 21,19L21,5C21,3.9 20.1,3 19,3L5,3C3.89,3 3,3.9 3,5ZM15,9C15,10.66 13.66,12 12,12C10.34,12 9,10.66 9,9C9,7.34 10.34,6 12,6C13.66,6 15,7.34 15,9ZM6,17C6,15 10,13.9 12,13.9C14,13.9 18,15 18,17L18,18L6,18L6,17Z" style="fill-rule:nonzero;"/>
            </g>
        </g>
    </g>
</svg>

<svg clip-rule="evenodd" fill-rule="evenodd" stroke-linejoin="round" stroke-miterlimit="2" viewBox="0 0 100 100" xmlns="http://www.w3.org/2000/svg"><path d="m0 0h100v100h-100z" fill="none"/><path d="m3 5v14c0 1.1.89 2 2 2h14c1.1 0 2-.9 2-2v-14c0-1.1-.9-2-2-2h-14c-1.11 0-2 .9-2 2zm12 4c0 1.66-1.34 3-3 3s-3-1.34-3-3 1.34-3 3-3 3 1.34 3 3zm-9 8c0-2 4-3.1 6-3.1s6 1.1 6 3.1v1h-12z" fill-rule="nonzero" transform="matrix(5 0 0 5 -10 -10)"/></svg>
